X:23
T:PEGDRBY3- Peggy Derby or Dandy O
S:from J. Brysson's 'Curious Collection' (1791)
Q:1/4=40
L:1/4
M:2/4
K:D
A/|dd|(d/c/).B/.A/|dd|(d/c/).B/.A/|dd|d/f/a/f/|e/c/A|AA/G/|\
F/A/d/f/|a/f/g/e/|d/B/A/G/|.Fz/A/|B/c/d/B/|c/e/c/A/|\
Fd|d3/2z/A/|dd/d/|(d/c/).B/.A/|dd/d/|(d/c/).B/.A/|d/c/d/e/|\
(d/f/)a/f/|e/c/A|.Ag/g/|f/e/f/g/|af/d/|d/B/A/G/|.Fz/A/|\
B/c/d/B/|c/.e/c/A/|Fd|dz/a/|c'/a/f/d/|c/e/c/A/|Fd|dz/|]

